X:1
T:Title
%%score { ( 1 4 5 ) | ( 2 3 6 ) }
L:1/8
M:4/4
K:F
V:1 treble nm="Grand Piano"
V:4 treble 
V:5 treble 
V:2 bass 
V:3 bass 
V:6 bass 
V:1
 z4 z2[Q:1/4=100] A2 | A3 F B2 A2 | [EA]2 [EG]2 [DF]2 [EG]2 | [FA]2 [Ac]2 [_Ae]2 [Ad]2 | %4
 [Ac]2 [GB]A [EG]2 [EB]2 | A3 F B2 A2 | [EA]3 [EG] F2 G2 | A2 [G=B]2 [Gc]2 [Ad]2 | %8
[M:7/8] [Ge]2 [Fd]2 [CEc]3 |[M:1/4] G>A |[M:4/4] B6 z2 | [FA]6 z2 | B6 z2 |[M:3/4] [FA]6 | %14
[M:1/4] [CAc]>[CAc] |[M:4/4] [_Ae]2 [Ad]2 [=Ac]2 A2 | B2 c2 d2 [DFG]2 | F- [Fc]2 [Fc] [EB]2 [EG]2 | %18
[M:3/4] [A,CF]6 |] %19
V:2
 z4 z2 [F,CF]2 | [F,CF]3 [F,A,] [F,DF]2 [F,CF]2 | [C,C]2 [C,B,]2 [D,A,]2 [C,C]2 | %3
 [F,C]2 [F,C]2 [F,=B,]2 [F,B,]2 | [F,C]2 C-[F,CF] [C,C]2 [C,C]2 | [F,CF]3 [F,A,] [F,DF]2 [F,CF]2 | %6
 [C,C]3 [C,B,] [D,A,D]2 [E,C]2 | [F,CF]2 [F,D]2 [E,C]2 [F,C]2 |[M:7/8] [G,C]2 [G,=B,]2 C,3 | %9
[M:1/4][K:treble] E>F |[M:4/4] G6[K:bass][K:treble][K:bass] z2 | [F,C]2 F,2 F,2 E>[K:treble]F | %12
 G6[K:bass][K:treble][K:bass] z2 |[M:3/4] [F,C]2 F,2 F,2 |[M:1/4] F,>F, | %15
[M:4/4] [F,=B,]2 [F,B,]2 [F,C]2[K:treble] [F,CF]2 | [G,CE]2 [A,CF]2 [B,F]2[K:bass] B,,2 | %17
 z A,2 [C,A,] [C,G,]2 [C,B,]2 |[M:3/4] [F,,F,]6 |] %19
V:3
 x8 | x8 | x8 | x8 | z2 .E,2 z4 | x8 | x8 | x8 |[M:7/8] x7 |[M:1/4][K:treble] x2 | %10
[M:4/4] z2[K:bass] C,>C, z z/[K:treble] B/[K:bass] [C,C]2 | x15/2[K:treble] x/ | %12
 z2[K:bass] C,>C, z z/[K:treble] B/[K:bass] [C,C]2 |[M:3/4] x6 |[M:1/4] x2 | %15
[M:4/4] x6[K:treble] x2 | x6[K:bass] x2 | C,4 z4 |[M:3/4] x6 |] %19
V:4
 x8 | x8 | x8 | x8 | x8 | x8 | x8 | x8 |[M:7/8] x7 |[M:1/4] x2 |[M:4/4] z2 C>C z z/ d/ [Ac]>[GB] | %11
 z2 C2 C2 G>A | z2 C>C z z/ d/ [Ac]>[GB] |[M:3/4] z2 C2 C2 |[M:1/4] x2 |[M:4/4] x8 | x8 | %17
 .[CA]2 z2 z4 |[M:3/4] x6 |] %19
V:5
 x8 | x8 | x8 | x8 | x8 | x8 | x8 | x8 |[M:7/8] x7 |[M:1/4] x2 |[M:4/4] z4 C2 z2 | x8 | z4 C2 z2 | %13
[M:3/4] x6 |[M:1/4] x2 |[M:4/4] x8 | x8 | x8 |[M:3/4] x6 |] %19
V:6
 x8 | x8 | x8 | x8 | x8 | x8 | x8 | x8 |[M:7/8] x7 |[M:1/4][K:treble] x2 | %10
[M:4/4] z4[K:bass] C,2[K:treble][K:bass] z2 | x15/2[K:treble] x/ | %12
 z4[K:bass] C,2[K:treble][K:bass] z2 |[M:3/4] x6 |[M:1/4] x2 |[M:4/4] x6[K:treble] x2 | %16
 x6[K:bass] x2 | x8 |[M:3/4] x6 |] %19

